icon-themes/breeze_svg/cmd/sc_insertlinebreak.svg

<svg viewBox="0 0 16 16" xmlns="http://www.w3.org/2000/svg"><path d="m2 2v1h12v-1zm0 2v1h7v-1zm0 3v1h6v-1zm0 2v1h4v-1zm0 3v1h8v-1z" fill="#4d4d4d"/><path d="m9 7v1h1 .5c1.385 0 2.5 1.115 2.5 2.5 0 .81868-.39551 1.54491-1 2v-1.5h-1v1.9375.0625.9375.0625h1 2v-1h-1.0625c.65797-.6319 1.0625-1.50971 1.0625-2.5 0-1.939-1.561-3.5-3.5-3.5h-.5z" fill="#1d99f3"/></svg>

<svg viewBox="0 0 16 16" xmlns="http://www.w3.org/2000/svg">
  <path
     style="fill:#4d4d4d"
     d="M 2,2 V 3 H 14 V 2 Z M 2,4 V 5 H 9 V 4 Z M 2,7 V 8 H 8 V 7 Z m 0,2 v 1 H 6 V 9 Z m 0,3 v 1 h 8 v -1 z"
     />
  <path
     style="fill:#1d99f3"
     d="m 9,7 v 1 h 1 0.5 c 1.385,0 2.5,1.115 2.5,2.5 0,0.81868 -0.39551,1.54491 -1,2 V 11 H 11 V 12.9375 13 13.9375 14 h 1 2 V 13 H 12.9375 C 13.59547,12.3681 14,11.49029 14,10.5 14,8.561 12.439,7 10.5,7 H 10 Z"
     />
</svg>
